storage/app/icons/phosphoricons/duotone/folder-simple-duotone.svg

<svg xmlns="http://www.w3.org/2000/svg" fill="currentColor" viewBox="0 0 256 256"><path d="M224 88v112.89a7.11 7.11 0 0 1-7.11 7.11H40a8 8 0 0 1-8-8V64a8 8 0 0 1 8-8h53.33a8 8 0 0 1 4.8 1.6L128 80h88a8 8 0 0 1 8 8" opacity=".2"/><path d="M216 72h-85.33l-27.74-20.8a16.12 16.12 0 0 0-9.6-3.2H40a16 16 0 0 0-16 16v136a16 16 0 0 0 16 16h176.89A15.13 15.13 0 0 0 232 200.89V88a16 16 0 0 0-16-16m0 128H40V64h53.33l29.87 22.4A8 8 0 0 0 128 88h88Z"/></svg>

<svg xmlns="http://www.w3.org/2000/svg" viewBox="0 0 256 256" fill="currentColor"><path d="M224,88V200.89a7.11,7.11,0,0,1-7.11,7.11H40a8,8,0,0,1-8-8V64a8,8,0,0,1,8-8H93.33a8,8,0,0,1,4.8,1.6L128,80h88A8,8,0,0,1,224,88Z" opacity="0.2"/><path d="M216,72H130.67L102.93,51.2a16.12,16.12,0,0,0-9.6-3.2H40A16,16,0,0,0,24,64V200a16,16,0,0,0,16,16H216.89A15.13,15.13,0,0,0,232,200.89V88A16,16,0,0,0,216,72Zm0,128H40V64H93.33L123.2,86.4A8,8,0,0,0,128,88h88Z"/></svg>
